X: 21
T: Qingmiao dili luole shuang
%%abc-version 2.0
%%abcx-abcm2ps-target-version 5.9.1 (29 Sep 2008)
%%abc-creator hum2abc beta
%%abcx-conversion-date 2013/10/02 07:52:29
%%abc-edited-by Helmut Schaffrath
%%humdrum-veritas 4055972194
%%humdrum-veritas-data 3953076933
%%continueall 1
%%barnumbers 0
L: 1/8
M: 2/4
K: C
e e c c/ a/ [I:setbarnb 1]| 
d c c c/ e/ | 
G E C C/ G/ | 
D4 | 
e e c c/ a/ | 
d c c c/ e/ | 
G E C C/ A/ | 
G4 |]  



